images/advanced-two.svg

<svg width="88" height="88" viewBox="0 0 88 88" fill="none" xmlns="http://www.w3.org/2000/svg">
<circle cx="44" cy="44" r="44" fill="#3A3054"/>
<path fill-rule="evenodd" clip-rule="evenodd" d="M24 43.9685C24 32.958 32.958 24 43.9685 24C54.9789 24 63.937 32.958 63.937 43.9685C63.937 54.9789 54.9789 63.937 43.9685 63.937C32.958 63.937 24 54.9789 24 43.9685ZM51.7726 59.5788C46.91 57.1766 41.0271 57.1766 36.1645 59.5788C38.5169 60.7599 41.1618 61.441 43.9685 61.441C46.7751 61.441 49.4202 60.7599 51.7726 59.5788ZM54.2138 58.0914C47.9965 54.3772 39.9404 54.3772 33.7231 58.0914C29.3532 54.9125 26.496 49.7739 26.496 43.9685H31.4881V41.4725H26.6953C27.227 37.7809 28.9064 34.4614 31.3733 31.8901L34.2609 34.7778L36.0257 33.013L33.2284 30.2157C35.8864 28.1354 39.1549 26.8132 42.7204 26.5594V30.2403H45.2165V26.5593C48.7821 26.8132 52.0505 28.1354 54.7085 30.2157L51.9113 33.0129L53.6761 34.7777L56.5637 31.8901C59.0305 34.4614 60.71 37.7809 61.2417 41.4724H56.4488V43.9685H61.4409C61.4409 49.7739 58.5838 54.9125 54.2138 58.0914ZM42.7802 34.8508C42.1452 36.8288 38.9764 46.8058 38.9764 48.9606C38.9764 51.7138 41.2153 53.9527 43.9685 53.9527C46.7217 53.9527 48.9606 51.7138 48.9606 48.9606C48.9606 46.8058 45.7917 36.8288 45.1567 34.8508C44.8253 33.8172 43.1117 33.8172 42.7802 34.8508ZM43.9685 51.4567C42.5925 51.4567 41.4724 50.3366 41.4724 48.9606C41.4724 47.9404 42.7351 43.4651 43.9685 39.4175C45.2019 43.4651 46.4646 47.9404 46.4646 48.9606C46.4646 50.3366 45.3445 51.4567 43.9685 51.4567Z" fill="#2BD0D0"/>
</svg>

<svg width="88" height="88" fill="none" xmlns="http://www.w3.org/2000/svg"><circle cx="44" cy="44" r="44" fill="#3A3054"/><path fill-rule="evenodd" clip-rule="evenodd" d="M24 43.968C24 32.959 32.958 24 43.968 24s19.969 8.958 19.969 19.968-8.958 19.969-19.968 19.969C32.957 63.937 24 54.979 24 43.969Zm27.773 15.61c-4.863-2.401-10.746-2.401-15.609 0a17.338 17.338 0 0 0 7.804 1.863c2.807 0 5.452-.681 7.805-1.862Zm2.44-1.487c-6.217-3.714-14.273-3.714-20.49 0-4.37-3.178-7.227-8.317-7.227-14.123h4.992v-2.496h-4.793a17.409 17.409 0 0 1 4.678-9.582l2.888 2.888 1.765-1.765-2.798-2.797a17.362 17.362 0 0 1 9.492-3.657v3.681h2.497v-3.68a17.362 17.362 0 0 1 9.492 3.656l-2.798 2.797 1.765 1.765 2.888-2.888a17.41 17.41 0 0 1 4.678 9.582h-4.793v2.496h4.992c0 5.806-2.857 10.944-7.227 14.123ZM42.78 34.851c-.635 1.978-3.804 11.955-3.804 14.11a4.997 4.997 0 0 0 4.992 4.992 4.997 4.997 0 0 0 4.993-4.992c0-2.155-3.17-12.132-3.804-14.11-.332-1.034-2.045-1.034-2.377 0Zm1.188 16.606a2.5 2.5 0 0 1-2.496-2.496c0-1.02 1.263-5.496 2.496-9.544 1.234 4.048 2.497 8.523 2.497 9.544a2.5 2.5 0 0 1-2.497 2.496Z" fill="#2BD0D0"/></svg>
